X:1
T:Title
%%score { 1 | 2 }
L:1/8
Q:1/4=90
M:6/8
K:Bb
V:1 treble nm="Grand Piano"
V:2 bass 
V:1
 GFE D2 D | E2 F D3 | GAB G2 G | A2 c A3 | ddc B2 A | G2 F E3 | DE^F G2 A | A3 A3 | ddc B2 A | %9
w: ?????~???????? * * * *|||||||||
 G2 F E3 | CDE D2 ^F | D3 D3 | d2 B G2 D | B2 A A3 | c2 A F2 D | c2 B B3 | B2 A G2 G | %17
w: ||||||||
[M:13/16] A-<ABc-<ce3/2 |[M:3/4] dc B A2 F | A3 G3 |] %20
w: |||
V:2
 G,3 [G,B,]3 | [G,C]3 [G,B,]3 | [G,B,]3 [G,B,]3 | [G,C]3 [G,C]3 | [G,B,]3 [G,D]3 | [G,C]3 [G,C]3 | %6
 [G,B,]3 [G,B,D]3 | [^F,CD]3 [F,CD]3 | [G,B,]3 [G,D]3 | [G,C]3 [G,C]3 | G,3 [G,C]3 | [^F,C]6 | %12
 G,3 .[G,B,D]3 | F,3 [F,CD]3 | F,3 .[F,CD]3 | [F,CD]3 [G,B,D]3 | G,3 [G,B,D]3 | %17
[M:13/16] [G,CE]/-[G,CE]/-[G,CE]-<[G,CE][G,CE]/-[G,CE]/-[G,CE]/-[G,CE]-<[G,CE] | %18
[M:3/4] F,3 [F,CD]3 | [F,CD]3 [G,B,D]3 |] %20

